svgs/sharp-regular/square-this-way-up.svg

<svg xmlns="http://www.w3.org/2000/svg" viewBox="0 0 448 512"><!--! Font Awesome Pro 6.6.0 by @fontawesome - https://fontawesome.com License - https://fontawesome.com/license (Commercial License) Copyright 2024 Fonticons, Inc. --><path d="M48 80l0 352 352 0 0-352L48 80zM0 32l48 0 352 0 48 0 0 48 0 352 0 48-48 0L48 480 0 480l0-48L0 80 0 32zM352 352l0 48L96 400l0-48 256 0zm-72-32l0-128-40 0 0-16 64-64 64 64 0 16-40 0 0 128-48 0zM120 192l-40 0 0-16 64-64 64 64 0 16-40 0 0 128-48 0 0-128z"/></svg>

<svg xmlns="http://www.w3.org/2000/svg" viewBox="0 0 448 512"><!--! Font Awesome Pro 6.4.0 by @fontawesome - https://fontawesome.com License - https://fontawesome.com/license (Commercial License) Copyright 2023 Fonticons, Inc. --><path d="M48 80V432H400V80H48zM0 32H48 400h48V80 432v48H400 48 0V432 80 32zM352 352v48H96V352H352zm-72-32V192H240V176l64-64 64 64v16H328V320H280zM120 192H80V176l64-64 64 64v16H168V320H120V192z"/></svg>
